lib/preview/nrk-logo-preview-nrk-radio-on-light.svg

<svg width="83" height="14" viewBox="0 0 83 14" fill="none" xmlns="http://www.w3.org/2000/svg">
<path d="M0 13V1.00109H3.93719V13H0ZM9.29381 2.91078L11.5581 13H7.24917L4.54549 1.00109H6.96218C7.51635 0.993898 8.05406 1.18925 8.4745 1.55039C8.89562 1.89638 9.18495 2.3767 9.29381 2.91078ZM12.1495 13V1.00109H16.0867V13H12.1495ZM19.0605 5.5641C18.6362 5.56824 18.2188 5.45723 17.8525 5.24296C17.4912 5.03412 17.1911 4.73396 16.9823 4.3726C16.7678 4.00633 16.6568 3.58876 16.661 3.16432C16.6561 2.74246 16.7672 2.32738 16.9823 1.96443C17.1933 1.60699 17.4931 1.31009 17.8525 1.10252C18.2189 0.888502 18.6362 0.777515 19.0605 0.781384C19.4822 0.776842 19.8971 0.887929 20.2602 1.10252C20.616 1.31191 20.9127 1.60856 21.122 1.96443C21.3368 2.32748 21.4479 2.74249 21.4433 3.16432C21.4473 3.58873 21.3363 4.00623 21.122 4.3726C20.9149 4.73238 20.6179 5.03228 20.2602 5.24296C19.8971 5.45798 19.4819 5.56909 19.0599 5.5641H19.0605ZM22.0516 13V1.00109H25.9892V13H22.0516ZM30.9737 7.55823C30.9848 7.56988 31.0693 7.70788 31.2272 7.97227C31.3851 8.23666 31.5906 8.57468 31.8439 8.98629C32.0974 9.39771 32.3649 9.83426 32.6463 10.296C32.9278 10.7577 33.1926 11.1944 33.4408 11.6058C33.6881 12.0172 33.9697 12.4819 34.2857 13H29.9598C29.6893 12.5606 29.4441 12.1635 29.2245 11.8086C29.0048 11.4537 28.7713 11.0706 28.5238 10.6594C28.2758 10.2485 28.0306 9.84854 27.7882 9.45947C27.5458 9.07039 27.3375 8.72961 27.1633 8.43706C26.9883 8.14432 26.8671 7.94712 26.7997 7.84554C26.6325 7.59344 26.5336 7.30229 26.5127 7.00054C26.5294 6.71094 26.6226 6.43098 26.7828 6.18911C26.8504 6.07645 26.9743 5.87643 27.1545 5.58913C27.3348 5.30183 27.546 4.96105 27.7882 4.56672C28.0304 4.17239 28.2756 3.7696 28.5238 3.35837C28.772 2.94715 29.0056 2.56124 29.2245 2.20071C29.4445 1.84055 29.6897 1.44059 29.9598 1.00081H34.2857L30.9396 6.4595C30.8361 6.62157 30.7777 6.80835 30.7706 7.00054C30.7818 7.20232 30.8522 7.39632 30.9731 7.55823H30.9737Z" fill="#0A2343"/>
<path d="M44.7403 8.0412C44.9651 8.0068 45.187 7.95501 45.4037 7.88632C45.8431 7.74964 46.2488 7.52234 46.5948 7.21902C46.9394 6.91128 47.2107 6.53029 47.3888 6.10399C47.589 5.6137 47.6868 5.08763 47.676 4.55814C47.6836 3.9405 47.5538 3.32887 47.2959 2.76757C47.0295 2.21309 46.5909 1.75968 46.0457 1.47491C45.3182 1.12154 44.5138 0.955953 43.7058 0.993354H38.8571V12.9885H40.6141V8.39317H43.1987L46.1893 12.9885H48.2502L45.4457 8.83272L44.7403 8.0412ZM44.7702 2.69126C45.1201 2.82464 45.4127 3.07561 45.5977 3.40111C45.7913 3.77941 45.8843 4.20111 45.868 4.62572C45.8891 5.0957 45.7749 5.56186 45.5389 5.96884C45.3155 6.31541 44.9824 6.57709 44.5928 6.71217C44.1229 6.87374 43.6282 6.95097 43.1314 6.94026H40.6141V2.46317H43.3339C43.8228 2.4469 44.3104 2.52433 44.7702 2.69126Z" fill="#1767CE"/>
<path d="M57.3563 11.9244C57.2328 11.9357 57.1084 11.9171 56.9936 11.87C56.8789 11.8228 56.7773 11.7487 56.6974 11.6538C56.5407 11.3831 56.4756 11.0691 56.5116 10.7584L56.5454 7.27841C56.5491 6.91346 56.5036 6.54966 56.4102 6.19686C56.328 5.88758 56.1907 5.59574 56.0048 5.33529C55.8167 5.08074 55.578 4.86791 55.3036 4.7102C54.9848 4.52919 54.6401 4.39818 54.2815 4.32186C53.843 4.22713 53.3954 4.1818 52.9468 4.18671C52.591 4.18647 52.2355 4.20895 51.8825 4.25401C51.5489 4.29596 51.2187 4.36086 50.8941 4.44828C50.5931 4.53006 50.297 4.62887 50.0072 4.74423L49.8045 6.18029C50.086 6.07892 50.3537 5.99441 50.6073 5.92683C50.8609 5.85925 51.1057 5.80298 51.3419 5.75793C51.5736 5.71359 51.8077 5.68263 52.043 5.66526C52.2737 5.64799 52.5017 5.63943 52.7272 5.63962C53.0717 5.63235 53.4156 5.67219 53.7493 5.75793C53.9928 5.81888 54.2167 5.941 54.3998 6.11271C54.5627 6.27979 54.6792 6.4865 54.7377 6.71244C54.8097 6.99106 54.8438 7.27814 54.839 7.56589L54.8371 7.9897L52.8623 8.12341C52.1869 8.14229 51.5215 8.29137 50.9026 8.56241C50.4395 8.7651 50.0397 9.08906 49.7453 9.50007C49.4956 9.86586 49.363 10.2989 49.3652 10.7418C49.362 11.1574 49.4637 11.567 49.6609 11.9329C49.8675 12.3087 50.1784 12.6168 50.5563 12.8198C51.0171 13.0595 51.5322 13.176 52.0514 13.1577C52.5379 13.1689 53.0222 13.0887 53.479 12.9212C53.8741 12.7667 54.2355 12.5372 54.5434 12.2454C54.6602 12.1333 54.7711 12.0151 54.8756 11.8915C54.9085 12.0663 54.9704 12.2345 55.0586 12.389C55.2091 12.6478 55.4407 12.8496 55.7176 12.9634C56.0235 13.0863 56.3509 13.1466 56.6805 13.1408C56.7819 13.1408 56.8805 13.138 56.9762 13.1324C57.0702 13.127 57.1635 13.1129 57.2549 13.0902C57.345 13.0676 57.4265 13.0479 57.5 13.031C57.5661 13.0162 57.6311 12.9965 57.6942 12.9719L57.88 11.8399C57.7868 11.872 57.6906 11.8946 57.5928 11.9075C57.5144 11.9181 57.4355 11.9237 57.3563 11.9244ZM54.5434 11.1642C54.3603 11.309 54.162 11.4336 53.9521 11.5359C53.7431 11.6376 53.5216 11.7115 53.2934 11.7555C53.0568 11.8012 52.8163 11.8239 52.5752 11.8231C52.2999 11.8309 52.0261 11.779 51.7727 11.671C51.5665 11.5816 51.3926 11.4313 51.2743 11.2402C51.1573 11.0377 51.0988 10.8066 51.1053 10.5728C51.089 10.2912 51.1663 10.0121 51.3249 9.77883C51.509 9.5643 51.7582 9.41595 52.0345 9.35647C52.4662 9.25486 52.9093 9.20944 53.3526 9.22132H54.8317L54.8241 10.8983C54.7383 10.9947 54.6444 11.0838 54.5434 11.1642Z" fill="#1767CE"/>
<path d="M65.3482 4.59668C65.331 4.58993 65.315 4.58172 65.2976 4.57496C64.9818 4.45604 64.6569 4.36282 64.3261 4.2962C63.9395 4.22005 63.5461 4.18337 63.152 4.1867C62.4138 4.18217 61.6879 4.37462 61.0489 4.74421C60.3893 5.12775 59.8484 5.6861 59.4861 6.35763C59.0703 7.15102 58.8666 8.03849 58.8948 8.93381C58.8754 9.70675 59.0284 10.4743 59.3425 11.1808C59.6167 11.7842 60.0636 12.2927 60.6268 12.6421C61.2324 12.9986 61.9261 13.1772 62.6285 13.1574C63.0594 13.16 63.4887 13.1032 63.904 12.9885C64.318 12.8697 64.7132 12.6934 65.0782 12.4647C65.2046 12.3867 65.3316 12.2992 65.4578 12.2077L65.6698 12.9885H67.0718V0.25L65.3485 0.486548L65.3482 4.59668ZM64.4444 11.544C64.0592 11.6958 63.6503 11.7788 63.2364 11.7892C62.7536 11.8033 62.2757 11.6896 61.8511 11.4595C61.456 11.2259 61.1477 10.8701 60.9726 10.4458C60.7534 9.90142 60.6498 9.31734 60.6685 8.73074C60.6487 8.12993 60.7642 7.53237 61.0063 6.98217C61.2127 6.53573 61.552 6.16397 61.9778 5.91781C62.4411 5.66563 62.9628 5.54031 63.4901 5.55456C63.7615 5.55394 64.0324 5.57377 64.3008 5.61375C64.5671 5.65497 64.8298 5.71718 65.0864 5.79984C65.1689 5.82603 65.2598 5.86096 65.3482 5.89306V11.0999C65.0608 11.2752 64.758 11.4238 64.4435 11.544H64.4444Z" fill="#1767CE"/>
<path d="M69.7062 12.9885H71.4295V4.20333L69.7062 4.45672V12.9885Z" fill="#1767CE"/>
<path d="M71.1845 0.663908C71.0091 0.556732 70.8071 0.50109 70.6016 0.50339C70.3935 0.50176 70.189 0.557295 70.0103 0.663908C69.8342 0.767092 69.6862 0.912171 69.5795 1.08627C69.4724 1.26165 69.4167 1.46365 69.419 1.66915C69.4173 1.87723 69.4729 2.08174 69.5795 2.26042C69.6827 2.43724 69.8315 2.58311 70.0103 2.68278C70.1908 2.78426 70.3946 2.8367 70.6016 2.83484C70.806 2.83734 71.0073 2.78482 71.1845 2.68278C71.3584 2.58234 71.5015 2.43629 71.5984 2.26042C71.6999 2.08002 71.7524 1.87617 71.7504 1.66915C71.7529 1.46475 71.7004 1.26343 71.5984 1.08627C71.498 0.912992 71.3557 0.767746 71.1845 0.663908Z" fill="#1767CE"/>
<path d="M81.701 6.25606C81.3644 5.61015 80.8443 5.07815 80.2061 4.72705C79.5022 4.35321 78.7138 4.16713 77.917 4.18672C77.1127 4.16828 76.3176 4.36047 75.6105 4.74424C74.9579 5.10944 74.4242 5.65482 74.0731 6.31517C73.6919 7.05616 73.5031 7.88114 73.5241 8.7142C73.5025 9.54077 73.6793 10.3605 74.0394 11.1048C74.363 11.7545 74.8792 12.2886 75.5177 12.634C76.2049 12.9939 76.9721 13.174 77.7477 13.1575C78.5597 13.1736 79.3623 12.9816 80.0792 12.5999C80.7486 12.2349 81.2975 11.6831 81.659 11.0118C82.0513 10.2622 82.2461 9.42491 82.225 8.57905C82.2442 7.7734 82.0642 6.97547 81.701 6.25606ZM80.1045 10.3867C79.9148 10.8258 79.5931 11.1949 79.1841 11.4427C78.773 11.678 78.306 11.7977 77.8325 11.7893C77.3681 11.8008 76.9104 11.6774 76.5147 11.4342C76.1232 11.174 75.8175 10.8038 75.6362 10.3701C75.4063 9.81358 75.297 9.21466 75.3155 8.61281C75.2955 8.02735 75.405 7.44468 75.6362 6.90644C75.8257 6.48345 76.1414 6.12944 76.54 5.89281C76.9663 5.65822 77.4474 5.54159 77.9338 5.55493C78.3135 5.54545 78.6909 5.61747 79.0404 5.76612C79.3466 5.90425 79.6137 6.1161 79.8179 6.38275C80.0355 6.67267 80.1933 7.00296 80.2822 7.35445C80.3878 7.76541 80.439 8.1885 80.4342 8.61281C80.454 9.22101 80.3414 9.82626 80.1045 10.3867Z" fill="#1767CE"/>
</svg>

<svg xmlns="http://www.w3.org/2000/svg" viewBox="0 0 83 14"><path fill="#0A2343" d="M0 13V1.001h3.937V13H0ZM9.294 2.91 11.558 13H7.25L4.545 1.001h2.417a2.276 2.276 0 0 1 1.513.55c.42.345.71.826.819 1.36ZM12.149 13V1.001h3.938V13h-3.938Zm6.912-7.436a2.382 2.382 0 0 1-2.4-2.4 2.301 2.301 0 0 1 .321-1.2 2.41 2.41 0 0 1 3.278-.861c.356.209.653.506.862.861.215.363.326.778.321 1.2a2.35 2.35 0 0 1-.321 1.209 2.4 2.4 0 0 1-.862.87 2.302 2.302 0 0 1-1.2.321ZM22.05 13V1.001h3.938V13h-3.937Zm8.923-5.442c.01.012.095.15.253.414.158.265.364.603.617 1.014a314.643 314.643 0 0 1 1.597 2.62c.247.411.529.876.845 1.394H29.96c-.27-.44-.516-.836-.736-1.191-.22-.355-.453-.738-.7-1.15-.248-.41-.493-.81-.736-1.2-.242-.389-.45-.73-.625-1.022a17.98 17.98 0 0 0-.363-.591A1.747 1.747 0 0 1 26.513 7c.016-.29.11-.57.27-.812.067-.113.191-.313.371-.6s.392-.628.634-1.022c.242-.395.488-.797.736-1.209a516 516 0 0 1 .7-1.157L29.96 1h4.326L30.94 6.46a1.08 1.08 0 0 0-.17.54c.012.202.082.396.203.558Z"/><path fill="#1767CE" d="M44.74 8.041c.225-.034.447-.086.664-.155.44-.136.845-.364 1.19-.667.345-.308.617-.689.795-1.115.2-.49.298-1.016.287-1.546a4.166 4.166 0 0 0-.38-1.79 2.852 2.852 0 0 0-1.25-1.293 4.843 4.843 0 0 0-2.34-.482h-4.849v11.995h1.757V8.393H43.2l2.99 4.595h2.061l-2.804-4.155-.706-.792Zm.03-5.35c.35.134.643.385.828.71.193.378.286.8.27 1.225.021.47-.093.936-.33 1.343a1.844 1.844 0 0 1-.945.743c-.47.162-.965.239-1.462.228h-2.517V2.463h2.72c.489-.016.976.061 1.436.228ZM57.356 11.924a.77.77 0 0 1-.659-.27 1.453 1.453 0 0 1-.185-.896l.033-3.48a4.065 4.065 0 0 0-.135-1.081 2.658 2.658 0 0 0-.405-.862 2.292 2.292 0 0 0-.701-.625 3.579 3.579 0 0 0-1.023-.388 6.009 6.009 0 0 0-1.334-.135c-.356 0-.712.022-1.065.067a7.306 7.306 0 0 0-.988.194c-.3.082-.597.18-.887.296l-.203 1.436a9.91 9.91 0 0 1 1.538-.422c.232-.044.466-.075.701-.093a9.06 9.06 0 0 1 .684-.025c.345-.008.689.032 1.022.118.244.06.468.183.65.355.164.167.28.373.339.6.072.278.106.565.101.853l-.002.424-1.975.133a5.25 5.25 0 0 0-1.96.44 2.809 2.809 0 0 0-1.157.937c-.25.366-.382.799-.38 1.242a2.47 2.47 0 0 0 .296 1.19c.206.377.517.685.895.888.461.24.976.356 1.495.338.487.01.971-.07 1.428-.237a3.288 3.288 0 0 0 1.064-.676c.117-.112.228-.23.333-.353.032.174.094.343.183.497.15.259.382.46.659.574.305.123.633.184.962.178.102 0 .2-.003.296-.009.094-.005.188-.02.279-.042l.245-.059c.066-.015.131-.035.194-.06l.186-1.131c-.093.032-.19.055-.287.068-.079.01-.158.016-.237.016Zm-2.813-.76c-.183.145-.381.27-.59.372-.21.102-.431.175-.66.22a3.722 3.722 0 0 1-.718.067 1.909 1.909 0 0 1-.802-.152c-.207-.09-.38-.24-.499-.43a1.264 1.264 0 0 1-.169-.668 1.28 1.28 0 0 1 .22-.794c.184-.215.433-.363.71-.423a5.151 5.151 0 0 1 1.318-.135h1.479l-.008 1.677c-.086.097-.18.186-.28.266ZM65.348 4.597l-.05-.022a5.82 5.82 0 0 0-2.146-.388 4.15 4.15 0 0 0-2.103.557 4.14 4.14 0 0 0-1.563 1.614 5.197 5.197 0 0 0-.591 2.576 5.21 5.21 0 0 0 .447 2.247 3.351 3.351 0 0 0 1.285 1.461c.605.357 1.3.535 2.002.515.43.003.86-.054 1.275-.168.414-.12.81-.296 1.174-.524.127-.078.254-.166.38-.257l.212.78h1.402V.25l-1.724.237v4.11Zm-.904 6.947a3.537 3.537 0 0 1-1.208.245 2.74 2.74 0 0 1-1.385-.33 2.115 2.115 0 0 1-.878-1.013 4.23 4.23 0 0 1-.304-1.715c-.02-.601.095-1.199.337-1.749.207-.446.546-.818.972-1.064a2.994 2.994 0 0 1 1.512-.363 5.113 5.113 0 0 1 1.596.245c.083.026.174.061.262.093V11.1c-.287.175-.59.324-.904.444ZM69.706 12.989h1.724V4.203l-1.724.254v8.532ZM71.184.664a1.094 1.094 0 0 0-.582-.16 1.137 1.137 0 0 0-.592.16 1.241 1.241 0 0 0-.43.422 1.095 1.095 0 0 0-.161.583c-.002.208.054.413.16.591.104.177.253.323.431.423.18.101.385.154.592.152.204.002.405-.05.582-.152.174-.1.317-.247.414-.423.102-.18.154-.384.152-.59a1.14 1.14 0 0 0-.152-.584 1.194 1.194 0 0 0-.413-.422ZM81.701 6.256a3.693 3.693 0 0 0-1.495-1.529 4.637 4.637 0 0 0-2.289-.54 4.614 4.614 0 0 0-2.306.557 3.896 3.896 0 0 0-1.538 1.571 4.97 4.97 0 0 0-.549 2.4 5.179 5.179 0 0 0 .515 2.39c.324.65.84 1.184 1.479 1.529.687.36 1.454.54 2.23.524a4.76 4.76 0 0 0 2.331-.558 3.933 3.933 0 0 0 1.58-1.588c.392-.75.587-1.587.566-2.433a4.896 4.896 0 0 0-.524-2.323Zm-1.596 4.13c-.19.44-.512.809-.92 1.057a2.627 2.627 0 0 1-1.353.346 2.403 2.403 0 0 1-1.317-.355 2.38 2.38 0 0 1-.879-1.064 4.26 4.26 0 0 1-.32-1.757 3.98 3.98 0 0 1 .32-1.707c.19-.423.505-.777.904-1.013a2.735 2.735 0 0 1 1.394-.338c.38-.01.757.062 1.106.211.307.138.574.35.778.617.218.29.375.62.464.971.106.411.157.834.152 1.259a4.205 4.205 0 0 1-.33 1.774Z"/></svg>
